@SIZE 1920 1080
@BACKGROUND 255 255 255
@POSITION 960 600
PENWIDTH 8
FUNC circ(step)
    LOOP 360
        CURVEMOVE step
        TURN 1
    END LOOP
END FUNC

FUNC cir(step)
    LOOP 360
        CURVEMOVE step
        TURN -1
    END LOOP
END FUNC

TURN -90
CALL circ(2)
CALL cir(3) 